!!!OTL: Eine gruselige Geschichte, S. 70
!!!id: R0061
**kern
*clefG2
*k[b-e-]
*B-:
{4f
=1
4b-
8b-
8b-
4b-
4b-
=2
4b-
8a
8g
4f}
=3
{8f
8f
=4
8g
8g
8g
8g
8a
8a
8a
8a
=5
4b-
4dd
4b-}
=6
{4f
=7
4b-
8b-
8b-
4b-
4b-
=8
4b-
8a
8g
4f}
=9
{8f
8f
=10
8g
8g
8g
8g
8a
8a
8a
8a
=11
4b-
4dd
4b-}
=12
{8f
8f
=13
8.b-
16b-
8.b-
16b-
8.b-
16b-
8d
8e-
=14
8.f
16f
8.f
16f
4f}
=15
{8f
8f
=16
8g
8g
8g
8g
8a
8a
8a
8a
=17
4b-
4dd
4b-}
=18
{8f
8f
=19
8.b-
16b-
8.b-
16b-
8.b-
16b-
8d
8e-
=20
8.f
16f
8.f
16f
4f}
=21
{8f
8f
=22
8g
8g
8g
8g
8a
8a
8a
8a
=23
4b-
4dd
4b-}
4r
=24
{4dd
8dd
8ff
4ee-
4f
=25
4cc
8cc
8ee-
4dd
4f}
=26
{4b-
8b-
8dd
4cc
4cc
=27
8a
8a
8g
8a
4b-}
4r
=28
{4dd
8dd
8ff
4ee-
4f
=29
4cc
8cc
8ee-
4dd
4f}
=30
{4b-
8b-
8dd
4cc
4cc
=31
8a
8a
8g
8a
4b-}
==
*-
!!!minrhy: 16
!!!meters: 4/4 ]  ZZ[12
!!!cut: Eine gruselige Geschichte, S. 70
!!!reg: Luxemburg
!!!trd: D'Fraen um Kanddaaf an der aler Zeit, Luxemburg 1929
!!!rhy1: X__  X__X_X_X__X__  X__X_X_X__   (x2)
!!!rhy2: X_X_  X_X_X_X_X_X_X_X_  X__X__X__
!!!key: R0061  16 Bb 4/4 ]  ZZ[12
!!!mod: HEPTATONIK IONISCH]  AMBITUS[10b
!!!kad: -51-51-51-51-51-51
!!!akz1: 111-5_-6-711_111-5_-6-711_11-5-5_-6-711_11-5-5_-6-711_3423_12-71_3423_12-71_
!! ]
!!!fot: 'a__b__a__b__aw_b__aw_b__c__cs'c__cs'
!!!for: 'a__b__a__b__c__b__c__bv_aw_d__aw_dv_
!!!fok: '^__^a_^__^a_~__^a_~__^a_Md_~__Md_~__
!! PHRAS[VORWIEGEND AUFTAKTIG]
!!!fkt: ??
!! RUDEN, J.M.:
!! PR[11] 2K[6] 2G[17] 3K[4] 3G[2] 4A[6] 4Ü[0] 5A[0] 6K[0] 6G[0]
!! 7K[0] 7G[0] 8A[2] MEHR[0] SI[38] ABS[47] SR[23] SP[15]
!! ST[10] 2k[11] 2g[30] 3k[6] 3g[2] 4d[2] 4ü[0] 5d[0] 6k[0] 6g[0]
!! 7k[0] 7g[0] 8d[0] mehr[0] si[51] dm[-13] sr[40] sp[11]
!! 1F[79] 2F[17] 3F[0] 4F[0] LF[0] 2P[4] 3P[0] 4P[0] TRI[0] DF[3] AB[48]
!! TF[0] U3K[0] U3[0] U4[0] U4Ü[0] U5[10] U6K[0] U6[8] U7K[0] U7[10]
!! N1[23] N2K[0] N2[17] N3K[0] N3[10] N4[4] N4Ü[0] N5[13] N6K[0] N6[4]
!!!n7k: 0] N7[0] O1[0] O2K[0] O2[0] O3K[0] O3[0] HÖ[0
